Obsidian-SemiLight/actions/22s/draw-freehand.svg

<svg xmlns="http://www.w3.org/2000/svg" viewBox="0 0 22 22">
  <defs id="defs3051">
    <style type="text/css" id="current-color-scheme">
      .ColorScheme-Text {
        color:#4d4d4d;
      }
      </style>
  </defs>
 <path 
    style="fill:currentColor;fill-opacity:1;stroke:none" 
	d="M 12.001953 3 L 4.6582031 10.3125 L 3.2519531 11.75 L 3.0019531 12 L 3.0019531 16 L 4.0019531 16 L 6.0019531 16 L 7.0019531 16 L 7.2519531 15.75 L 7.6269531 15.40625 L 8.3144531 14.6875 L 8.6894531 14.34375 L 15 8 L 16 7 L 12.001953 3 z M 11.408203 5 L 14 7.59375 L 9.7207031 11.84375 L 7.1582031 9.25 L 11.408203 5 z M 6.4394531 9.96875 L 9.0332031 12.5625 L 8.3144531 13.28125 L 5.7207031 10.6875 L 6.0019531 10.40625 L 6.4394531 9.96875 z M 5.0332031 11.375 L 7.6269531 13.96875 L 6.9082031 14.6875 L 4.3144531 12.09375 L 5.0332031 11.375 z M 16.498047 14 C 16.236387 14.0001 15.543567 14.046 14.435547 14.5625 C 14.089167 14.7241 13.80184 14.907 13.40625 15.125 C 13.19507 15.2414 12.43802 15.6193 12.15625 15.75 C 11.33058 16.1332 11.0562 16.2299 10.34375 16.5 C 9.65424 16.7615 8.9106 16.9987 8.40625 17.1875 C 6.28335 17.9823 3 18 3 18 L 3 19 C 3 19 6.32741 19.032 8.75 18.125 C 9.07135 18.0047 9.63148 17.8074 10.15625 17.625 C 10.96327 17.33064 11.83545 16.96826 12.5625 16.65625 C 12.86715 16.51485 13.573417 16.1652 13.873047 16 C 14.313257 15.7574 14.606857 15.57825 14.841797 15.46875 C 15.355167 15.16635 15.925197 14.9864 16.498047 15 C 16.453247 15.0002 16.671837 15.00105 16.873047 15.09375 C 17.074257 15.17775 17.297827 15.32735 17.466797 15.46875 C 17.794117 15.80065 17.931417 16.0539 17.998047 16.5 C 17.972347 17.182 17.737407 17.39575 17.248047 17.78125 C 16.924207 17.99579 16.46827 18.034846 16 18.003906 L 16 18.972656 C 16.78372 18.974656 17.411047 18.81831 17.779297 18.625 C 18.616007 18.1478 19.027267 17.28855 18.998047 16.46875 C 18.993047 16.18085 18.920827 15.9437 18.779297 15.625 C 18.637717 15.3064 18.435267 14.9489 18.123047 14.6875 C 17.641187 14.2643 17.399387 14.0781 16.498047 14 z "
    class="ColorScheme-Text"
    />  
</svg>

<svg viewBox="0 0 22 22" xmlns="http://www.w3.org/2000/svg"><path d="m12.001953 3-7.3437499 7.3125-1.40625 1.4375-.25.25v4h1 2 1l.25-.25.375-.34375.6875-.71875.375-.34375 6.3105469-6.34375 1-1zm-.59375 2 2.591797 2.59375-4.2792969 4.25-2.5625-2.59375zm-4.9687499 4.96875 2.59375 2.59375-.71875.71875-2.59375-2.59375.28125-.28125zm-1.40625 1.40625 2.59375 2.59375-.71875.71875-2.59375-2.59375zm11.4648439 2.625c-.26166.0001-.95448.046-2.0625.5625-.34638.1616-.633707.3445-1.029297.5625-.21118.1164-.96823.4943-1.25.625-.82567.3832-1.10005.4799-1.8125.75-.68951.2615-1.43315.4987-1.9375.6875-2.1229.7948-5.40625.8125-5.40625.8125v1s3.32741.032 5.75-.875c.32135-.1203.88148-.3176 1.40625-.5.80702-.29436 1.6792-.65674 2.40625-.96875.30465-.1414 1.010917-.49105 1.310547-.65625.44021-.2426.73381-.42175.96875-.53125.51337-.3024 1.0834-.48235 1.65625-.46875-.0448.0002.17379.00105.375.09375.20121.084.42478.2336.59375.375.32732.3319.46462.58515.53125 1.03125-.0257.682-.26064.89575-.75 1.28125-.32384.21454-.779777.253596-1.248047.222656v.96875c.78372.002 1.411047-.154346 1.779297-.347656.83671-.4772 1.24797-1.33645 1.21875-2.15625-.005-.2879-.07722-.52505-.21875-.84375-.14158-.3186-.34403-.6761-.65625-.9375-.48186-.4232-.72366-.6094-1.625-.6875z" fill="#4d4d4d"/></svg>
